!!!!SEGMENT: pl-wnifc--6439-n--005_anonim--mazur-no-5.krn
!!!cenid: 18xx:3948
!!!COM: Anonim
!!!COM-rismID: pe30004985
!!!CDT:
!!!CNT:
!!!OTL: Mazur No. 5
!!!PDT: 1827
!!!AGN:
!!!SMS-siglum: PL-Wnifc
!!!SMS-shelfmark: 6439/n
!!!SMS-shelfwork: 005 W
!!!SMS-variant:
!!!SMS-altvar:
!!!NIFC-rismSourceID: 1001011210
!!!NIFC-rismChildID: 1001011235
!!!NIFC-islandoraID: nifc:212734
!!!URL-pdf-islandora: https://repozytorium.nifc.pl/islandora/object/nifc:212734/datastream/PDF/view
!!!URL-scan: https://polish.musicsources.pl/pl/lokalizacje/galeria/druki-muzyczne/16857 @EN{Scan on Polish Music Sources Website} @PL{Skany w portalu Dziedzictwo Muzyki Polskiej w otwartym dostępie}
!!!IIIF:
!!!ONB-nifc: str. 4 w połowie 3. linii (skan 0003)
!!!AIN: 2 piano
!!!key: D
**kern	**kern
*part2	*part1
*staff2	*staff1
*I"Pianoforte	*I"Pianoforte
*I'Pf	*I'Pf
*Ipiano	*Ipiano
*ICklav	*ICklav
*clefF4	*clefG2
*k[f#c#]	*k[f#c#]
*D:	*D:
*M3/8	*M3/8
=1	=1
!	!LO:TX:a:Bi:t=Mazur No 5.
8D\ 8d	16.d/LL 16.f#
.	32a/JJk
8A\L 8d 8f#	16b\LL
.	16cc#\
8A\J 8d 8f#	16dd\
.	16cc#\JJ
=2	=2
!	!LO:TUP:a
8D\ 8d	(24dd\LL
.	24ee\
.	24ff#\JJ)
8A\L 8d 8f#	8dd'\L
!	!LO:TUP:a
8A\J 8d 8f#	(24dd\L
.	24cc#\
.	24b\JJ)
=3	=3
8AA\ 8A	16a\LL
.	16cc#\
8A\L 8e 8g	16ee\
.	16gg\
8A\J 8e 8g	16bb\
.	16aa\JJ
!LO:LB:g=original	!LO:LB:g=original
=4	=4
!	!LO:TUP:a
8D\ 8d	(24gg\LL
.	24ff#\
.	24ee\JJ)
8A\L 8d 8f#	8ff#\L
8A\J 8d 8f#	8dd\J
=5	=5
8D\ 8d	16a\LL
.	16dd\
8A\L 8d 8f#	16ff#\
.	16aa\
8A\J 8d 8f#	16ddd\
.	16ff#\JJ
=6	=6
8D\ 8d	(16bb\LL
.	16aa\
8A\L 8d 8f#	16gg#X\
.	16aa\
8A\J 8d 8f#	16ggn\)
.	16ff#'\JJ
=7	=7
8AA\ 8A	16ee\LL
.	16dd\
8A\L 8e 8g	16cc#\
.	16ee\
8A\J 8e 8g	16aa\
.	16cc#\JJ
=8	=8
8d\ 8f#	16ee\LL
.	16dd\JJ
4D\ 4d	4dd\
=9:|:	=9:|:
8AA\ 8A	8ee\L
8E\L 8A 8c#	16cc#\L
.	16ee\
8E\J 8A 8c#	16ff#\
.	16ee\JJ
=10	=10
8EE/ 8E	16.dd\LL
.	32b\JJk
8E\L 8B 8d	4g#X/
8E\J 8B 8d	.
=11	=11
8EE/ 8E	16e/LL
.	16g#X/JJ
8E\L 8B 8d	16b\LL
.	16ee\
8E\J 8B 8d	16gg#X\
.	16bb\JJ
=12	=12
8AA\ 8A	16.aa\LL
.	32bb\JJk
8E\L 8A 8c#	8ccc#\L
8E\J 8A 8c#	16aa\L
.	16ee\JJ
=13	=13
8AA\ 8A	16cc#\LL
.	16eee\
8E\L 8A 8c#	16ccc#\
.	16aa\
8E\J 8A 8c#	16ee\
.	16cc#\JJ
!LO:LB:g=original	!LO:LB:g=original
=14	=14
8EE/ 8E	16b\LL
.	16ddd\
8E\L 8B 8d	16bb\
.	16gg#X\
8E\J 8B 8d	16ee\
.	16dd\JJ
=15	=15
8EE/ 8E	16cc#\LL
.	16b\
8E\L 8B 8e	16gg#X\
.	16ff#\
8E\J 8B 8d	16dd\
.	16b\JJ
=16	=16
8AA\ 8A	16g#X/LL
.	16a/JJ
4A\ 4c#	4a/
=17:|!|:	=17:|!|:
8D\ 8d	16.dd\LL
.	32ff#\JJk
8A\L 8d 8f#	8a\L
8A\J 8d 8f#	16dd\L
.	16ff#\JJ
=18	=18
!	!LO:TUP:a
8D\ 8d	(24aa\LL
.	24bb\
.	24aa\JJ)
8A\L 8d 8f#	8ff#\L
8A\J 8d 8f#	16dd\L
.	16ff#\JJ
=19	=19
8AA\ 8A	8a\L
8A\L 8c# 8e	16cc#\L
.	16ee\
8A\J 8c# 8e	16aa\
.	16gg\JJ
=20	=20
!	!LO:TUP:a
8d\	(24gg\LL
.	24ff#\
.	24ee\JJ)
8A\L 8d 8f#	8dd\L
.	8qccc#/
8A\J 8d 8f#	8ddd\J
=21	=21
8GG/ 8G	(16ccc#\LL
.	16bb\
8G\L 8B 8e	16aa#X\
.	16bb\
8G\J 8B 8e	16aan\
.	16gg\JJ)
=22	=22
8GG\ 8G	16ff#\LL
.	16ee\
8G\L 8B 8e	16dd#X\
.	16ee\
8G\J 8B 8e	16gg\
.	16ee\JJ
!LO:LB:g=original	!LO:LB:g=original
=23	=23
8AA\L 8A	16dd\LL
.	16cc#\
8A\ 8e 8g	16aa\
.	16a\
8A\J 8e 8g	16b\
.	16cc#\JJ
=24	=24
8d\ 8f#	16ee\LL
.	16dd\JJ
4D\ 4d	4dd\
=25:|:	=25:|:
*^	*
*k[f#]	*k[f#]	*k[f#]
*G:	*G:	*G:
8rc	4G\	16.gg\LL
.	.	32aa\JJk
8B/L 8d	.	16bb\LL
.	.	16gg\
8B/J 8d	8rEE	16ff#\
.	.	16ee\JJ
=26	=26	=26
8rc	4G\	16b\LL 16dd
.	.	16a\JJ 16cc
8B/L 8d	.	8g\L 8b
8B/J 8d	8rEE	16gg\L
.	.	16bb\JJ
=27	=27	=27
8rc	4D\	16.aa\LL
.	.	32gg\JJk
8A/L 8c	.	8ff#\L
8A/J 8c	8rEE	16ccc\L
.	.	16ff#\JJ
=28	=28	=28
!	!	!LO:TUP:a
8rc	4G\	(24gg\LL
.	.	24aa\
.	.	24bb\JJ)
8B/L 8d	.	8gg\L
8B/J 8d	8rEE	8dd\J
=29	=29	=29
8rc	4G\	16gg\LL
.	.	16bb\
8B/L 8d	.	16aa\
.	.	16gg\
8B/J 8d	8rEE	16ff#\
.	.	16ee\JJ
=30	=30	=30
8rc	4G\	8dd\L
8B/L 8d	.	16b\L
.	.	16dd\
8B/J 8d	8rEE	16gg\
.	.	16bb\JJ
=31	=31	=31
!	!	!LO:TUP:a
8rc	4D\	(24aa\LL
.	.	24bb\
.	.	24ccc\JJ)
8A/L 8c	.	8dd\L
8A/J 8c	8rEE	16ee\L
.	.	16ff#\JJ
*v	*v	*
=32	=32
8G\ 8B	16aa\LL
.	16gg\JJ
4GG/ 4G	4gg\
=:|!	=:|!
*-	*-
!!!system-decoration: [(s1,s2)]
!!!ENC: Solarz Mateusz
!!!END: 2022-07-28
!!!ENC: Julita Ruszuk
!!!END: 2022-08-25
!!!YEC: Copyright 2022 Narodowy Instytut Fryderyka Chopina (https://polishscores.org)
!!!YEM: License CC-BY-4.0 (https://creativecommons.org/licenses/by/4.0)
